svg/fluentui-system-icons/ic_fluent_share_48_regular.svg

<svg width="48" height="48" viewBox="0 0 48 48" fill="none" xmlns="http://www.w3.org/2000/svg">
<path d="M31.605 6.83811C31.2415 6.49733 30.7103 6.40497 30.2531 6.60304C29.7959 6.80111 29.5 7.25178 29.5 7.75003V13.2223C29.1425 13.2305 28.7251 13.2514 28.26 13.2944C26.725 13.4362 24.6437 13.8204 22.4841 14.799C18.0824 16.7935 13.5579 21.1728 12.5081 30.3581C12.4493 30.8729 12.7141 31.3706 13.174 31.6094C13.6338 31.8482 14.1932 31.7785 14.5805 31.4343C18.9164 27.5801 22.9778 25.9209 25.9168 25.2155C27.3897 24.862 28.5872 24.7466 29.4032 24.718C29.4361 24.7169 29.4684 24.7158 29.5 24.715V30.25C29.5 30.7483 29.7959 31.1989 30.2531 31.397C30.7103 31.5951 31.2415 31.5027 31.605 31.162L43.605 19.9119C43.857 19.6756 44 19.3455 44 19C44 18.6545 43.857 18.3244 43.605 18.0881L31.605 6.83811ZM30.606 15.7422L30.6257 15.7438L30.6285 15.7441L30.6269 15.7439C30.9779 15.7787 31.3272 15.6635 31.5888 15.4268C31.8506 15.1899 32 14.8532 32 14.5V10.6353L40.9224 19L32 27.3647V23.5C32 22.8696 31.5462 22.34 30.9051 22.2597L30.9036 22.2595L30.902 22.2593L30.8982 22.2588L30.8883 22.2577L30.8597 22.2545C30.8368 22.252 30.8062 22.249 30.768 22.2456C30.6917 22.2389 30.5853 22.2309 30.4506 22.2242C30.1812 22.2109 29.7982 22.2026 29.3156 22.2195C28.3503 22.2534 26.9854 22.3881 25.3333 22.7845C22.6531 23.4278 19.2341 24.7565 15.5547 27.4384C17.0405 21.3588 20.4181 18.4798 23.5159 17.0761C25.3563 16.2422 27.15 15.9076 28.49 15.7838C29.1577 15.7221 29.7057 15.7134 30.081 15.7196C30.2684 15.7227 30.412 15.7295 30.5052 15.7351C30.5517 15.738 30.5856 15.7405 30.606 15.7422ZM12.25 8.00003C8.79822 8.00003 6 10.7983 6 14.25V35.75C6 39.2018 8.79822 42 12.25 42H33.75C37.2018 42 40 39.2018 40 35.75V33.5C40 32.8097 39.4404 32.25 38.75 32.25C38.0596 32.25 37.5 32.8097 37.5 33.5V35.75C37.5 37.8211 35.8211 39.5 33.75 39.5H12.25C10.1789 39.5 8.5 37.8211 8.5 35.75V14.25C8.5 12.179 10.1789 10.5 12.25 10.5H20.5C21.1904 10.5 21.75 9.94039 21.75 9.25003C21.75 8.55967 21.1904 8.00003 20.5 8.00003H12.25Z" fill="#212121"/>
</svg>

<svg xmlns="http://www.w3.org/2000/svg" width="48" height="48"><path d="M31.605 6.838a1.25 1.25 0 0 0-2.105.912v5.472c-.358.008-.775.03-1.24.072-1.535.142-3.616.526-5.776 1.505-4.402 1.995-8.926 6.374-9.976 15.56a1.25 1.25 0 0 0 2.073 1.075c4.335-3.854 8.397-5.513 11.336-6.219a17.713 17.713 0 0 1 3.486-.497l.097-.003v5.535a1.25 1.25 0 0 0 2.105.912l12-11.25a1.25 1.25 0 0 0 0-1.824l-12-11.25Zm-.999 8.904.02.002h.002-.001A1.25 1.25 0 0 0 32 14.5v-3.865L40.922 19 32 27.365V23.5c0-.63-.454-1.16-1.095-1.24h-.003l-.004-.001-.01-.001-.028-.003a8.425 8.425 0 0 0-.41-.03 13.505 13.505 0 0 0-1.134-.006c-.966.034-2.33.17-3.983.566-2.68.643-6.099 1.971-9.778 4.653 1.486-6.08 4.863-8.958 7.96-10.362 1.841-.834 3.635-1.168 4.975-1.292.668-.062 1.216-.07 1.591-.064a9.837 9.837 0 0 1 .525.022ZM12.25 8A6.25 6.25 0 0 0 6 14.25v21.5A6.25 6.25 0 0 0 12.25 42h21.5A6.25 6.25 0 0 0 40 35.75V33.5a1.25 1.25 0 0 0-2.5 0v2.25a3.75 3.75 0 0 1-3.75 3.75h-21.5a3.75 3.75 0 0 1-3.75-3.75v-21.5a3.75 3.75 0 0 1 3.75-3.75h8.25a1.25 1.25 0 1 0 0-2.5h-8.25Z"/></svg>
